X: 10
M: 4/4
L: 1/8
K: Emin
|: B>A |\
|: e>f |\
g>eB>G e>BG>E | B,>EG>B e>Bg>e | f>dA>F d>AF>D | A,>DF>A B>AG>F |

